X: 29854
T: O'Dwyer's
R: reel
M: 4/4
K: Dmajor
G|FADA FADA|FAAB A2 (GF)|GBEB GBEB|GBBc B2 (AG)|
FADA FADA|FAAB A2 (GF)|EFGB ABcA|d2 AG FDDG|
AGAB c2 (AB)|cBAG (FD) D2|Addc d2 (Ac)|d2 AG FD D2|
AGAB c2 (AB)|cBAG FDDC|DEFG ABcA|d2 AG (FD)DG|

